!!!OTL: Hongtaiyang Haishangzhao
!!!ARE: Asia, China,ÿZhejiang Zhoushan
!! III, 605
!!!SCT: C2062
!!!YEM: Copyright 1995, estate of Helmut Schaffrath.
**kern
*ICvox
*Ivox
*M2/4
*k[f#c#g#d#a#]
*B:
{8ccc#
8ccc#
8ccc#
8bb
=1
8ddd#
8ccc#
8bb
16gg#
16bb
=2
4.ccc#
16ccc#
16bb
=3
8ccc#
8bb
8ccc#
8ddd#
=4
2bb}
=5
{8gg#
4gg#
8bb
=6
8gg#
8bb
8gg#
8bb
=7
8gg#
8bb
8gg#
8bb
=8
8bb
8gg#
8ff#
8dd#
=9
4.ff#
8ff#
=10
8gg#
16ff#
16gg#
8bb
8gg#
=11
2ff#}
=12
{8ff#
8gg#
8ff#
8dd#
=13
8ff#
8gg#
8ff#
8dd#
=14
8ff#
8gg#
8ff#
8dd#
=15
8ff#
8gg#
8ff#
8dd#
=16
8ff#
8gg#
8ff#
8dd#
=17
8ff#
8gg#
8ff#
8dd#}
=18
{8bb
8bb
8gg#
8bb
=19
8bb
4gg#
8bb
=20
8gg#
4ff#
8gg#
=21
8gg#
16ff#
16gg#
8bb
8gg#
=22
2ff#}
=23
{8ccc#
8ddd#
8bb
8bb
=24
8ccc#
4ccc#
8ddd#
=25
8bb
8ccc#
8fff#
8ddd#
=26
4.ccc#
8bb
=27
8gg#
16ff#
16gg#
8bb
8gg#
=28
2ff#}
==
!!!AGN: Haozi
!!!AMT: simple duple
!!!AIN: vox
!!!EED: Helmut Schaffrath
!!!EEV: 1.0
*-
